X: 41843
T: Vinton's
R: hornpipe
M: 4/4
K: Amajor
|:fe|dcBA BcdB|(3cdc (3BAG F2FE|DFBF GecA|B2 B>B B2 z2|
dBdf eceg|fdfa gegb|gfed =ef (3gab|a2 f2 f2:|
|:fe|d>B (3BAB d>B (3BAB|G>E (3EDE G>E (3EDE|cBcd edcB|A>F (3F=EF A>F (3F=EF|
f>B (3BAB g>B (3BAB|gfga b>B (3BAB|Ggfe dcBA|c2 B2 B2:|

